X:1
T:The Ould Triangle
M:3/4
L:1/16
K:G
 z8 D2E-F| G3 F E2D2-D2 dd| d3 Bd-Bd2-d2 Bd| e2 dc BG AB A G3| E8 F3 F|\
 G3 F E2D2-D2 de| d2B2d-Bd2-d2 Bd| e2d-cB-A G2 B A2 G| G8 z4|
